X: 90
T: 86. BONAPARTE'S RETREAT
B: Sam Bayard, "Hill Country Tunes" 1944 #86
N: Played by irvin Yaugher Jr., Mt. Independence, PA, Oct 19, 1943.  Learned from his great-uncle.
R: march
M: 4/4
L: 1/8
Z: 2010 John Chambers <jc:trillian.mit.edu>
%%slurgraces
K: Am
((3E^FG) | AzA2 {cB}AGE2 | cde^/c d2 ((3e^f^/g) | a>^/ged ^/cA GE | {E}A2A>B A2 :|
|: e^f/^/g/ | a>^ged ^/cde^f | ^/g^fga g2e/^f/^g | a^/ged ^/cA GE | A2 "a."A>B A2 |]
P: Var:
"a."A2 |]

%%sep 2 1 500
%%sep 1 1 500

